X:15
T:Lanigan's Ball
R:Jig
H:Seamus Quinn
M:6/8
L:1/8
Q:3/8=120
K:G
|:E2E G2A|B2A Bcd|D2D F2G|ABA AFD|
E2E G2A|B2A Bcd|eBB B2A|BEE E3:|
e2f g2e|fag fed|e2f gfe|fdB Bcd|
e2f g2e|fag fed|edB cBA|[1 BGE EDE:|[2 BGE B3E3|]
